picto/smoking-framed.svg

<svg class="color-immutable" width="30" height="30" viewBox="0 0 30 30" fill="none" xmlns="http://www.w3.org/2000/svg"><path d="M29.9999 0H0V29.9999H29.9999V0Z" fill="#2D327D"/><path d="M25.4999 2.99999C26.3249 2.99999 26.9999 3.67499 26.9999 4.49999V25.4999C26.9999 26.3249 26.3249 26.9999 25.4999 26.9999H4.49999C3.67499 26.9999 2.99999 26.3249 2.99999 25.4999V4.49999C2.99999 3.67499 3.67499 2.99999 4.49999 2.99999H25.4999ZM25.4999 2.62499H4.49999C3.46612 2.62499 2.62499 3.46612 2.62499 4.49999V25.4999C2.62499 26.5338 3.46612 27.3749 4.49999 27.3749H25.4999C26.5338 27.3749 27.3749 26.5338 27.3749 25.4999V4.49999C27.3749 3.46612 26.5338 2.62499 25.4999 2.62499Z" fill="white"/><path d="M5.99998 13.875H21.5999V16.125H5.99998V13.875Z" fill="white"/><path d="M14.6276 7.08666V7.31166C14.6276 10.3131 17.0639 12.7494 20.0654 12.7494H20.8154V11.6241H20.0654C17.6849 11.6241 15.7529 9.69215 15.7529 7.31166V7.08666H14.6276Z" fill="white"/><path d="M20.8124 9.37467H20.0624C18.9239 9.37467 17.9997 8.45068 17.9997 7.31225V7.08725H16.8747V7.31225C16.8747 9.07182 18.3031 10.4997 20.0624 10.4997H20.8124C21.9508 10.4997 22.8748 11.4237 22.8748 12.5623V12.75H23.9998V12.5624C23.9998 10.8027 22.572 9.37467 20.8124 9.37467Z" fill="white"/><path d="M22.8749 13.875H23.9999V16.125H22.8749V13.875Z" fill="white"/></svg>

<svg class="color-immutable" width="30" height="30" viewBox="0 0 30 30" fill="none" xmlns="http://www.w3.org/2000/svg"><path d="M30 0H0v30h30V0Z" fill="#2D327D"/><path d="M25.5 3c.825 0 1.5.675 1.5 1.5v21c0 .825-.675 1.5-1.5 1.5h-21c-.825 0-1.5-.675-1.5-1.5v-21C3 3.675 3.675 3 4.5 3h21Zm0-.375h-21A1.877 1.877 0 0 0 2.625 4.5v21c0 1.034.841 1.875 1.875 1.875h21a1.877 1.877 0 0 0 1.875-1.875v-21A1.877 1.877 0 0 0 25.5 2.625Z" fill="#fff"/><path d="M6 13.875h15.6v2.25H6v-2.25ZM14.628 7.087v.225a5.44 5.44 0 0 0 5.437 5.437h.75v-1.125h-.75a4.314 4.314 0 0 1-4.312-4.312v-.225h-1.125Z" fill="#fff"/><path d="M20.812 9.375h-.75A2.063 2.063 0 0 1 18 7.312v-.225h-1.125v.225a3.189 3.189 0 0 0 3.187 3.188h.75c1.139 0 2.063.924 2.063 2.062v.188H24v-.188a3.189 3.189 0 0 0-3.188-3.187ZM22.875 13.875H24v2.25h-1.125v-2.25Z" fill="#fff"/></svg>
